icons/trashcan-17.svg

<svg width="16" height="17" viewBox="0 0 16 17" fill="none" xmlns="http://www.w3.org/2000/svg">
<path fill-rule="evenodd" clip-rule="evenodd" d="M6.79995 3.56638C6.79995 3.45593 6.8895 3.36638 6.99995 3.36638H8.99995C9.11041 3.36638 9.19995 3.45593 9.19995 3.56638V4.56638H6.79995V3.56638ZM10.4 3.56638V4.56638H12.2C12.5313 4.56638 12.8 4.83501 12.8 5.16638C12.8 5.49775 12.5313 5.76638 12.2 5.76638H3.79995C3.46858 5.76638 3.19995 5.49775 3.19995 5.16638C3.19995 4.83501 3.46858 4.56638 3.79995 4.56638H5.59995V3.56638C5.59995 2.79318 6.22675 2.16638 6.99995 2.16638H8.99995C9.77315 2.16638 10.4 2.79318 10.4 3.56638ZM5.19697 7.50668C5.164 7.17695 4.86998 6.93638 4.54025 6.96936C4.21052 7.00233 3.96995 7.29636 4.00293 7.62608L4.53089 12.9057C4.60246 13.6213 5.20469 14.1664 5.92394 14.1664H10.076C10.7952 14.1664 11.3975 13.6213 11.469 12.9057L11.997 7.62608C12.03 7.29636 11.7894 7.00233 11.4596 6.96936C11.13 6.93638 10.8359 7.17695 10.8029 7.50668L10.275 12.7863C10.2648 12.8885 10.1787 12.9664 10.076 12.9664H5.92394C5.82119 12.9664 5.73515 12.8885 5.72493 12.7863L5.19697 7.50668Z" fill="#272431"/>
</svg>

<svg xmlns="http://www.w3.org/2000/svg" width="16" height="17" viewBox="0 0 16 17"><path fill-rule="evenodd" d="M6.8 3.566c0-.11.09-.2.2-.2h2c.11 0 .2.09.2.2v1H6.8v-1zm3.6 0v1h1.8a.6.6 0 010 1.2H3.8a.6.6 0 010-1.2h1.8v-1a1.4 1.4 0 011.4-1.4h2a1.4 1.4 0 011.4 1.4zm-5.203 3.94a.6.6 0 10-1.194.12l.528 5.28a1.4 1.4 0 001.393 1.26h4.152a1.4 1.4 0 001.393-1.26l.528-5.28a.6.6 0 10-1.194-.12l-.528 5.28a.2.2 0 01-.199.18H5.924a.2.2 0 01-.2-.18l-.527-5.28z"/></svg>
